X:104
T:Lou Coucut
M:C
L:1/8
N:Assez anim
N:La Bourre 4th edition 1929, page 100
Z:Steve Mansfield www.lesession.co.uk June 2012
K:Bb
F F | B4 c2 B A | (B4 B) B A B | 
c4 f2 e d | c2 - c d/ e/ d c B d | 
c2 F2 - F f e d | c f e d c4 | d > c B d c2 F2 | 
"parl" z2 z F B > c d B | c2 d e d2 c2 | B4 z4 |]
<end>
<start>
